!!!OTL: By the Stream So Cool and Clear 
!!!id: HA019
**kern
*clefF4
*k[]
*F:
*M4/4
{4.f
8d
4c
4d
=2
4f
4a
4.g}
{8f
=3
4f
4f
4.cc
8dd
=4
4cc
4a
4cc
4dd}
=5yy
{4f
4f
4a
4cc
=6
4.cc
8cc
4a
4g}
=7yy
{4a
4cc
4.ff
8gg
=8
4ee
4cc
4dd
4ff}
=9yy
{4f
4f
4.dd
8cc
=10
4ff
8cc
8a
4.g}
{8cc
=11
4d
4f
4.a
8a
=12
4dd
8cc
8a
4g
4f}
==
*-
!!!minrhy: 8
!!!meter: 4/4 
!!!cut: By the Stream So Cool and Clear 
!!!key: HA019  08  F 4/4 
!!!bem: nur 6 Zeilen, Vorschlge und Triller
!!!fog: a--b--c--d--e--f--
!! Haydn: Volksliedbearbeitungen, Bd1
